Adwaita++/devices/16/auth-fingerprint.svg

<svg height="16.01" width="16" xmlns="http://www.w3.org/2000/svg">
  <g fill="#474747">
    <path d="m2.955 2.818a1 1 0 0 0 -.899.483 7.004 7.004 0 0 0 -1.056 3.699 1 1 0 1 0 2 0c0-.934.262-1.85.755-2.643a1 1 0 0 0 -.8-1.539z"/>
    <path d="m1.984 5.986a1 1 0 0 0 -.984 1.014v5.063a1 1 0 1 0 2 0v-5.063a1 1 0 0 0 -1.016-1.014z" fill-rule="evenodd"/>
    <path d="m8 3c-2.198 0-4 1.803-4 4a1 1 0 1 0 2 0c0-1.116.883-2 2-2 1.116 0 2 .884 2 2a1 1 0 1 0 2 0c0-2.197-1.803-4-4-4z"/>
    <path d="m7.984 5.986a1 1 0 0 0 -.984 1.014v5s-.001.595.144 1.32c.145.726.413 1.651 1.149 2.387a1 1 0 1 0 1.414-1.414c-.265-.264-.497-.839-.602-1.363-.105-.525-.105-.93-.105-.93v-5a1 1 0 0 0 -1.016-1.014zm-3 0a1 1 0 0 0 -.984 1.014v1a1 1 0 1 0 2 0v-1a1 1 0 0 0 -1.016-1.014zm0 4a1 1 0 0 0 -.984 1.014v3a1 1 0 1 0 2 0v-3a1 1 0 0 0 -1.016-1.014zm6-4a1 1 0 0 0 -.984 1.014v5s.009.44.175.941a4.56 4.56 0 0 0 1.118 1.766 1 1 0 1 0 1.414-1.414c-.383-.382-.55-.736-.633-.984-.084-.249-.074-.309-.074-.309v-5a1 1 0 0 0 -1.016-1.014zm3 0a1 1 0 0 0 -.984 1.014v1a1 1 0 1 0 2 0v-1a1 1 0 0 0 -1.016-1.014z" fill-rule="evenodd"/>
    <path d="m8.072 0a6.996 6.996 0 0 0 -3.488.89 1 1 0 1 0 .974 1.747 4.997 4.997 0 0 1 4.97.05 4.996 4.996 0 0 1 2.472 4.313 1 1 0 1 0 2 0 7.006 7.006 0 0 0 -3.46-6.039 6.993 6.993 0 0 0 -3.467-.961z"/>
    <path d="m15 11a1 1 0 0 1 -1 1 1 1 0 0 1 -1-1 1 1 0 0 1 1-1 1 1 0 0 1 1 1z"/>
  </g>
</svg>

<svg xmlns="http://www.w3.org/2000/svg" width="16" height="16.01">
    <g fill="#2e3436">
        <path d="M2.955 2.818a1 1 0 0 0-.899.483A7.004 7.004 0 0 0 1 7a1 1 0 1 0 2 0c0-.934.262-1.85.755-2.643a1 1 0 0 0-.8-1.539z" style="line-height:normal;font-variant-ligatures:normal;font-variant-position:normal;font-variant-caps:normal;font-variant-numeric:normal;font-variant-alternates:normal;font-feature-settings:normal;text-indent:0;text-align:start;text-decoration-line:none;text-decoration-style:solid;text-decoration-color:#000;text-transform:none;text-orientation:mixed;shape-padding:0;isolation:auto;mix-blend-mode:normal" color="#000" font-weight="400" font-family="sans-serif" white-space="normal" overflow="visible"/>
        <path d="M1.984 5.986A1 1 0 0 0 1 7v5.063a1 1 0 1 0 2 0V7a1 1 0 0 0-1.016-1.014z" style="line-height:normal;font-variant-ligatures:normal;font-variant-position:normal;font-variant-caps:normal;font-variant-numeric:normal;font-variant-alternates:normal;font-feature-settings:normal;text-indent:0;text-align:start;text-decoration-line:none;text-decoration-style:solid;text-decoration-color:#000;text-transform:none;text-orientation:mixed;shape-padding:0;isolation:auto;mix-blend-mode:normal" color="#000" font-weight="400" font-family="sans-serif" white-space="normal" overflow="visible" fill-rule="evenodd"/>
        <path d="M8 3C5.802 3 4 4.803 4 7a1 1 0 1 0 2 0c0-1.116.883-2 2-2 1.116 0 2 .884 2 2a1 1 0 1 0 2 0c0-2.197-1.803-4-4-4z" style="line-height:normal;font-variant-ligatures:normal;font-variant-position:normal;font-variant-caps:normal;font-variant-numeric:normal;font-variant-alternates:normal;font-feature-settings:normal;text-indent:0;text-align:start;text-decoration-line:none;text-decoration-style:solid;text-decoration-color:#000;text-transform:none;text-orientation:mixed;shape-padding:0;isolation:auto;mix-blend-mode:normal" color="#000" font-weight="400" font-family="sans-serif" white-space="normal" overflow="visible"/>
        <path d="M7.984 5.986A1 1 0 0 0 7 7v5s-.001.595.144 1.32c.145.726.413 1.651 1.149 2.387a1 1 0 1 0 1.414-1.414c-.265-.264-.497-.839-.602-1.363C9 12.405 9 12 9 12V7a1 1 0 0 0-1.016-1.014zM4.984 5.986A1 1 0 0 0 4 7v1a1 1 0 1 0 2 0V7a1 1 0 0 0-1.016-1.014zM4.984 9.986A1 1 0 0 0 4 11v3a1 1 0 1 0 2 0v-3a1 1 0 0 0-1.016-1.014zM10.984 5.986A1 1 0 0 0 10 7v5s.009.44.175.941a4.56 4.56 0 0 0 1.118 1.766 1 1 0 1 0 1.414-1.414c-.383-.382-.55-.736-.633-.984C11.99 12.06 12 12 12 12V7a1 1 0 0 0-1.016-1.014zM13.984 5.986A1 1 0 0 0 13 7v1a1 1 0 1 0 2 0V7a1 1 0 0 0-1.016-1.014z" style="line-height:normal;font-variant-ligatures:normal;font-variant-position:normal;font-variant-caps:normal;font-variant-numeric:normal;font-variant-alternates:normal;font-feature-settings:normal;text-indent:0;text-align:start;text-decoration-line:none;text-decoration-style:solid;text-decoration-color:#000;text-transform:none;text-orientation:mixed;shape-padding:0;isolation:auto;mix-blend-mode:normal" color="#000" font-weight="400" font-family="sans-serif" white-space="normal" overflow="visible" fill-rule="evenodd"/>
        <path d="M8.072 0a6.996 6.996 0 0 0-3.488.89 1 1 0 1 0 .974 1.747 4.997 4.997 0 0 1 4.97.05A4.996 4.996 0 0 1 13 7a1 1 0 1 0 2 0A7.006 7.006 0 0 0 11.54.961 6.993 6.993 0 0 0 8.073 0z" style="line-height:normal;font-variant-ligatures:normal;font-variant-position:normal;font-variant-caps:normal;font-variant-numeric:normal;font-variant-alternates:normal;font-feature-settings:normal;text-indent:0;text-align:start;text-decoration-line:none;text-decoration-style:solid;text-decoration-color:#000;text-transform:none;text-orientation:mixed;shape-padding:0;isolation:auto;mix-blend-mode:normal" color="#000" font-weight="400" font-family="sans-serif" white-space="normal" overflow="visible"/>
        <path d="M15 11a1 1 0 0 1-1 1 1 1 0 0 1-1-1 1 1 0 0 1 1-1 1 1 0 0 1 1 1z"/>
    </g>
</svg>
